X:1
T:Kornknarr, sänghalm
T:Knut Håkanson (1887-1929)
T:Text: E A Karlfeldt
T:Kornknarr, sänghalm
T:Op 39 nr 3
%%score [ 1 ( 2 3 ) ( 4 5 ) 6 ]
L:1/8
Q:1/4=120
M:4/4
K:G
V:1 treble-8 nm="Baryton Solo"
V:2 treble nm="S A"
V:3 treble 
V:4 treble-8 nm="T"
V:5 treble-8 
V:6 bass nm="B"
V:1
"^Non troppo lento (rubato)" z8 | z8 | z8 | z8 | z8 | z8 | z8 | z8 | z8 | z8 | z8 | z8 | %12
w: ||||||||||||
!mp! E4 G2 B2 | d3 d c2 B2 | z2 ^D2 F2 A2 | c3 c B2 A2 | G2 EF G3 G | F6 z2 | (E2 ^G2) B2 d2 | %19
w: Nu när de|tröt- ta so- va,|vill jag gå|ut och lo- va|skym- nin- gens un- ge|gud.|Ned _ ö- ver|
 e3 d c2 B2 | (A2 E2) A2 B2 | c3 c B2 A2 |"^dim." G2 FE G2 F2 |!>(! B,6!>)! z2 | z8 |!p! ^D6 ^CB, | %26
w: gu- la bin- gar,|sän- * ker han|mju- ka vin- gar,|sak- ta och u- tan|ljud.||Två ä- ro|
 ^D3 F E2 D2 | z2"^cresc. poco" F4 ^DE | F3 F G2 F2 | B2 F!<(!E (^DF)(B!<)!^c) |!mf! ^c8- | c6 z2 | %32
w: de som va- ka,|me- dan hans|blon- da ma- ka|öpp- nar sig kär- * leks- *|varm,|_|
!f! e6 ^d^c | ^c3 B B2 B2 |"^meno" e4!f! A2 B2 | d3 d !courtesy!=c2 B2 |!mf!!<(! B2 GB (d4!<)! | %37
w: tjust av hans|ö- gon- svär- ta|sån- gen ur|å- kerns hjär- ta,|dof- ten av jor-|
 _e6)!>(! d2 | G8-!>)!"^dim." | G2 z2 z4 |!mp! (B,2!<(! D2) =F2 _A2!<)! |!>(! _B3 _A G2 =F2!>)! | %42
w: * dens|barm.|_|Lov- * sång och|väl- lukt väl- la.|
!<(! (C2 E2) G2 B2!<)! | (c!>(!d) B2 c2 G2!>)! | _B>!>(!A A2 z (FG)A!>)! |!p! B6 z2 | %46
w: Dim- * man från|äng- * ens käl- la|smy- ger sig till _ hans|bröst.|
!mf! e4 e2 f2 |!f! g3 d c2 B2 |"^meno" d4 A2 d2 | e3 c B2 A2 | %50
w: Nej- den be-|fri- at an- das,|som- mar och|sval- ka blan- das,|
"^agitato" A2!<(! B,B, (3^D2 F2!<)! A2 |!ff!!<(! c8!<)! | z8"^rit. e dim." | z8 | %54
w: av- lan- de so- * nen|höst.|||
[K:E]"^a tempo" z8 | z8 |!mp! E4 E2 F2 | G3 B A2 G z | A4 E2 A2 | =c3 c B2 AA | G2 EF =G3 F | %61
w: ||Bä- ren, min|barn- doms vän- ner,|allt vad av|an- dakt kän- ner min|lå- gan- de bon- de-|
 F6 z2 |"^più meno"!<(! (E2 G2) B2!<)! =d2 | f3 f e2 =d2 | A4 A2 z2 | z EAB =d2 c2 | =c2 AB c3 c | %67
w: själ.|Lyf- * ten på|sträng och ån- ga,|bö- nen|och mi- na mån- ga|brin- nan- de års far-|
 B8-"^cresc." |"^Largamento" B3 z B2 B2 |!<(! E4 A2 c2!<)! | (e2!>(! =c2) A2 E2 | %71
w: väl,|_ mi- na|brin- nan- de,|brin- * nan- de|
 !breath!=G6!>)!"^rit." F2 |[K:G]"^Tempo 1" E8- | E2 z2 z4 | z8 | z8 | z8 | z8 | z8 | z8 | z8 | %81
w: års far-|väl.|_||||||||
 z8 | z8 | z8 | z8 | z8 | z8 | z8 |] %88
w: |||||||
V:2
!mp! .c2 .B2 z4 | .B2 .A2 z4 | .B2 .A2 z4 | B2 A2 z4 |"^dim." A2 ^G2 z4 | A2 ^G2 z4 | %6
w: Korn- knarr,|säng- halm,|korn- knarr,|säng- halm,|korn- knarr,|säng- halm,|
"^sempre" !courtesy!=A2 !courtesy!=G2 z4 | A2 G2 z4 | G2 F2 z4 | G2 F2 z4 |!pp! F2 E2 z4 | %11
w: korn- knarr,|säng- halm,|korn- knarr,|säng- halm,|korn- knarr,|
 F2 E2 z4 |!p! A2 G2 z4 | A2 G2 z4 | G2 F2 z4 | G2 F2 z4 | E2 E2 z4 | E2 ^D2 z4 | E2 E2 z4 | %19
w: säng- halm,|korn- knarr,|säng- halm,|korn- knarr,|säng- halm,|korn- knarr,|säng- halm,|korn- knarr,|
 E2 E2 z4 | =F2 E2 z4 | =F2 E2 z4 |"^dim." E2 E2 z4 | E2 ^D2 z4 |!pp! E2 ^D2 z4 |!pp! ^C2 B,2 z4 | %26
w: säng- halm,|korn- knarr,|säng- halm,|korn- knarr,|säng- halm,|korn- knarr,|säng- halm,|
 ^C2 B,2 z4 |"^cresc. poco" E2 ^D2 z4 | E2 ^D2 z4 | B2 B2 z4 |!mf! B2 ^A2 z4 | ^c2 c2 z4 | %32
w: korn- knarr,|säng- halm,|korn- knarr,|säng- halm,|korn- knarr,|säng- halm,|
!f! ^c2 c2 z4 | A2 ^G2 z4 |"^meno" !courtesy!=c2 c2 z4 | A2 ^G2 z4 | A2 !courtesy!=G2 z4 | %37
w: korn- knarr,|säng- halm,|korn- knarr,|säng- halm,|korn- knarr,|
 _B2 A2 z4 | G2"^dim." G2 z4 |!p! G2 G2 z4 |!mp! _A2 G2 z4 | _A2 G2 z4 | !courtesy!=A2 G2 z4 | %43
w: säng- halm,|korn- knarr,|säng- halm,|korn- knarr,|säng- halm,|korn- knarr,|
 A2 G2 z4 |"^dim." G2 F2 z4 | A2 G2 z4 |!mf! d2 c2 z4 |!f! c2 B2 z4 |"^meno" _B2 A2 z4 | d2 c2 z4 | %50
w: säng- halm,|korn- knarr,|säng- halm,|korn- knarr,|säng- halm,|korn- knarr,|säng- halm,|
 c2 c2 z4 |!f! e^d z2!ff! gf z2 |!f! fe z2 z4 |!mf! e^d z2 z4 |[K:E]!mp! e2 e2 z4 | %55
w: korn- knarr,|säng- halm, säng- halm,|korn- knarr,|säng- halm,|korn- knarr,|
"^dim." =c2 B2 x4 |!p! A2 G2 x4 | F2 E2 x4 | B2 A2 x4 | B2 A2 x4 | F2 E2 x4 | E2 D2 x4 | %62
w: säng- halm,|korn- knarr,|säng- halm,|korn- knarr,|säng- halm,|korn- knarr,|säng- halm,|
 F2!<(! E2 x4!<)! | A2 G2 x4 | =d2 c2 x4 | B2 A2 x4 | =G2 F2 z4 | =G2"^cresc." F2 z4 | =F2 E2 z4 | %69
w: korn- knarr,|säng- halm,|korn- knarr,|säng- halm,|korn- knarr,|säng- halm,|korn- knarr,|
"^più"!f! E2 E2 z4 | E2 E2 z4 | E2 !courtesy!^D2 z4 |[K:G]!mp! c2 B2 z4 | B2 A2 z4 | B2 A2 z4 | %75
w: säng- halm,|korn- knarr,|säng- halm,|korn- knarr,|säng- halm,|korn- knarr,|
 B2 A2 z4 |"^dim." A2 ^G2 z4 | A2 ^G2 z4 | !courtesy!=A2 !courtesy!=G2 z4 | !courtesy!=A2 G2 z4 | %80
w: säng- halm,|korn- knarr,|säng- halm,|korn- knarr,|säng- halm,|
 G2 F2 z4 | G2 F2 z4 |!pp! F2 E2 z4 | F2 E2 z4 | .E2 .E2 z4 | .E2 .E2 z4 | %86
w: korn- knarr,|säng- halm,|korn- knarr,|säng- halm,|korn- knarr,|korn- knarr,|
!<(! !tenuto!E4!<)!!>(! !tenuto!!fermata!E2!>)! z2 | z8 |] %88
w: säng- halm.||
V:3
 .E2 .E2 z4 | .E2 .E2 z4 | .E2 .E2 z4 | E2 E2 z4 | E2 E2 z4 | E2 E2 z4 | E2 E2 z4 | E2 E2 z4 | %8
 ^D2 D2 z4 | ^D2 D2 z4 | B,2 B,2 z4 | B,2 B,2 z4 | E2 E2 z4 | E2 E2 z4 | ^D2 D2 z4 | ^D2 D2 z4 | %16
 ^C2 C2 z4 | !courtesy!=C2 C2 z4 | C2 B,2 z4 | C2 B,2 z4 | C2 C2 z4 | C2 C2 z4 | ^C2 C2 z4 | %23
 B,2 B,2 z4 | B,2 B,2 z4 | F,2 F,2 z4 | F,2 F,2 z4 | B,2 B,2 z4 | B,2 B,2 z4 | G2 F2 z4 | %30
 F2 F2 z4 | ^G2 G2 z4 | B2 A2 z4 | E2 E2 z4 | B2 A2 z4 | E2 E2 z4 | !courtesy!=D2 D2 z4 | %37
 F2 F2 z4 | D2 D2 z4 | _E2 D2 z4 | =F2 F2 z4 | =F2 F2 z4 | E2 E2 z4 | E2 E2 z4 | _E2 E2 z4 | %45
 D2 D2 z4 | G2 G2 z4 | G2 G2 z4 | =F2 F2 z4 | A2 A2 z4 | G2 F2 z4 | AA z2 [Ac][Ac] z2 | %52
 [GB][GB] z2 z4 | AA z2 z4 |[K:E] [G=c]2 [GB]2 z4 | [EG]2 [EG]2 z4 | E2 E2 z4 | B,2 B,2 z4 | %58
 E2 E2 z4 | E2 E2 z4 | C2 C2 z4 | =C2 C2 z4 | =D2 D2 z4 | =D2 D2 z4 | A2 A2 z4 | =F2 E2 z4 | %66
 =C2 C2 z4 | B,2 B,2 z4 | B,2 B,2 z4 | B,2 A,2 z4 | B,2 A,2 z4 | B,2 B,2 z4 |[K:G] E2 E2 z4 | %73
 E2 E2 z4 | E2 E2 x4 | E2 E2 x4 | E2 E2 x4 | E2 E2 x4 | E2 E2 x4 | E2 E2 x4 | ^D2 D2 x4 | %81
 ^D2 D2 x4 | B,2 B,2 x4 | B,2 B,2 x4 | E2 E2 x4 | E2 E2 x4 | E4 E2 x2 | x8 |] %88
V:4
"^con bocca chiusa"!mf! (^G4 =f4 | e6 c2 | e6 c2 | e6)"^dim." (B2 | d6 B2 | d6) (^A2 | %6
w: ||||||
"^sempre" ^c6 ^A2 | ^c6) (!courtesy!=A2 | !courtesy!=c6 A2 | c6 ^A2 |!p! B8- | B4) z4 | %12
w: ||||||
!p! B2 B2 z4 | B2 B2 z4 | A2 A2 z4 | A2 A2 z4 | B2 ^A2 z4 | !courtesy!=A2 A2 z4 | ^G2 G2 z4 | %19
w: korn- knarr,|säng- halm,|korn- knarr,|säng- halm,|korn- knarr,|säng- halm,|korn- knarr,|
 ^G2 G2 z4 | A2 A2 z4 | A2 A2 z4 |"^dim." B2 ^A2 z4 | F2 F2 z4 |!pp! F2 F2 z4 |!pp! ^D2 D2 z4 | %26
w: säng- halm,|korn- knarr,|säng- halm,|korn- knarr,|säng- halm,|korn- knarr,|säng- halm,|
 ^D2 D2 z4 |"^cresc. poco" F2 F2 z4 | F2 F2 z4 | B2 B2 z4 |!mf! ^c2 c2 z4 | [^cf]2 [c^e]2 z4 | %32
w: korn- knarr,|säng- halm,|korn- knarr,|säng- halm,|korn- knarr,|säng- halm,|
!f! !courtesy!=e2 e2 z4 | B2 B2 z4 |"^meno" e2 e2 z4 | B2 B2 z4 | B2 B2 z4 | c2 c2 z4 | %38
w: korn- knarr,|säng- halm,|korn- knarr,|säng- halm,|korn- knarr,|säng- halm,|
 c2"^dim." B2 z4 |!p! B2 B2 z4 |!mp! [Bd]2 [Bd]2 z4 | [Bd]2 [Bd]2 z4 | c2 c2 z4 | c2 c2 z4 | %44
w: korn- knarr,|säng- halm,|korn- knarr,|säng- halm,|korn- knarr,|säng- halm,|
"^dim." c2 c2 z4 | B2 B2 z4 |!mf! e2 e2 z4 |!f! d2 d2 z4 |"^meno" d2 d2 z4 | e2 e2 z4 | e2 ^d2 z4 | %51
w: korn- knarr,|säng- halm,|korn- knarr,|säng- halm,|korn- knarr,|säng- halm,|korn- knarr,|
!f! gf z2!ff! e^d z2 |!f! [Be][Be] z2 z4 |!mf! [cf][cf] z2 z4 |[K:E]!mp! [Be]2 [Be]2 z4 | %55
w: säng- halm, säng- halm,|korn- knarr,|säng- halm,|korn- knarr,|
"^dim." B2 B2 z4 |!p! B2 B2 z4 | G2 G2 z4 | c2 c2 z4 | =c2 c2 z4 | ^A2 A2 z4 | %61
w: säng- halm,|korn- knarr,|säng- halm,|korn- knarr,|säng- halm,|korn- knarr,|
 !courtesy!=A2 A2 z4 | A2!<(! G2 z4!<)! | c2 B2 z4 | =f2 e2 z4 | =d2 c2 z4 | B2 A2 z4 | %67
w: säng- halm,|korn- knarr,|säng- halm,|korn- knarr,|säng- halm,|korn- knarr,|
 A2"^cresc." A2 z4 | A2 !courtesy!^G2 z4 |"^più"!f! E2 E2 z4 | E2 E2 z4 | A2 A2 z4 | %72
w: säng- halm,|korn- knarr,|säng- halm,|korn- knarr,|säng- halm,|
[K:G]"^con bocca chiusa"!mf! (^G4 =f4 | e6 c2 | e6 c2 | e6)"^dim." (B2 | d6 B2 | d6) (^A2 | %78
w: ||||||
 ^c6 ^A2 | ^c6) (!courtesy!=A2 | !courtesy!=c6 A2 | c6 ^A2 |!p! B8- |!>(! B4)!>)! z4 | z8 | z8 | %86
w: ||||||||
 z8 | z8 |] %88
w: ||
V:5
 E4 d4 | c6 A2 | c6 A2 | c6 ^G2 | B6 ^G2 | B6 F2 | ^A6 F2 | ^A6 F2 | !courtesy!=A6 F2 | A6 F2 | %10
 G8- | G4 z4 | x8 | x8 | x8 | x8 | x8 | x8 | x8 | x8 | x8 | x8 | x8 | x8 | x8 | x8 | x8 | x8 | x8 | %29
 x8 | x8 | x8 | x8 | x8 | x8 | x8 | x8 | x8 | x8 | x8 | x8 | x8 | x8 | x8 | x8 | x8 | x8 | x8 | %48
 x8 | x8 | x8 | x8 | x8 | x8 |[K:E] x8 | x8 | x8 | x8 | x8 | x8 | x8 | x8 | x8 | x8 | x8 | x8 | %66
 x8 | x8 | x8 | x8 | x8 | x8 |[K:G] E4 d4 | c6 A2 | c6 A2 | c6 ^G2 | B6 ^G2 | B6 F2 | ^A6 F2 | %79
 ^A6 F2 | A6 F2 | A6 F2 | G8- | G4 z4 | x8 | x8 | x8 | x8 |] %88
V:6
!mp! .E,2 .E,2 z4 | .E,2 .E,2 z4 | .E,2 .E,2 z4 | E,2 E,2 z4 |"^dim." E,2 E,2 z4 | E,2 E,2 z4 | %6
w: Korn- knarr,|säng- halm,|korn- knarr,|säng- halm,|korn- knarr,|säng- halm,|
"^sempre" E,2 E,2 z4 | E,2 E,2 z4 | E,2 E,2 z4 | E,2 E,2 z4 |!pp! E,2 E,2 z4 | E,2 E,2 z4 | %12
w: korn- knarr,|säng- halm,|korn- knarr,|säng- halm,|korn- knarr,|säng- halm,|
!p! E,2 E,2 z4 | E,2 E,2 z4 | E,2 E,2 z4 | E,2 E,2 z4 | E,2 E,2 z4 | E,2 E,2 z4 | E,2 E,2 z4 | %19
w: |||||||
 E,2 E,2 z4 | E,2 E,2 z4 | E,2 E,2 z4 |"^dim." F,2 F,2 z4 | B,,2 B,,2 z4 |!pp! B,,2 B,,2 z4 | %25
w: ||||||
!pp! B,,2 B,,2 z4 | B,,2 B,,2 z4 |"^cresc. poco" B,,2 B,,2 z4 | B,,2 B,,2 z4 | ^D,2 D,2 z4 | %30
w: |||||
!mf! F,2 F,2 z4 | ^C,2 C,2 z4 |!f! A,,2 A,,2 z4 | E,2 E,2 z4 |"^meno" A,,2 A,,2 z4 | E,2 E,2 z4 | %36
w: ||||||
 !courtesy!=D,2 D,2 z4 | D,2 D,2 z4 | G,,2"^dim." G,,2 z4 |!p! G,,2 G,,2 z4 | %40
w: ||||
!mp! [G,,G,]2 [G,,G,]2 z4 | [G,,G,]2 [G,,G,]2 z4 | [G,,G,]2 [G,,G,]2 z4 | [G,,G,]2 [G,,G,]2 z4 | %44
w: ||||
"^dim." [G,,G,]2 [G,,G,]2 z4 | [G,,G,]2 [G,,G,]2 z4 |!mf! [C,G,]2 [C,G,]2 z4 | %47
w: |||
!f! [G,,G,]2 [G,,G,]2 z4 |"^meno" [D,A,]2 [D,A,]2 z4 | [A,,A,]2 [A,,A,]2 z4 | %50
w: |||
 [B,,A,]2 [B,,A,]2 z4 |!f! [B,,A,][B,,A,] z2!ff! [B,,A,][B,,A,] z2 |!f! B,4 B,,2 B,,2 | C,6 B,,2 | %54
w: ||av- lan- de|so- nen|
[K:E]!mp! E,8- |!>(! E,4!>)! z4 |!p! E,2 E,2 z4 | E,2 E,2 z4 | E,2 E,2 z4 | E,2 E,2 z4 | %60
w: höst.|_|||||
 E,2 E,2 z4 | E,2 E,2 z4 | E,2!<(! E,2 z4!<)! | E,2 E,2 z4 | E,2 E,2 z4 | E,2 E,2 z4 | E,2 E,2 z4 | %67
w: |||||||
 D,2"^cresc." D,2 z4 | =D,2 D,2 z4 |"^più"!f! C,2 C,2 z4 | =C,2 C,2 z4 | B,,2 B,,2 z4 | %72
w: |||||
[K:G]!mp! E,2 E,2 z4 | E,2 E,2 z4 | E,2 E,2 z4 | E,2 E,2 z4 |"^dim." E,2 E,2 z4 | E,2 E,2 z4 | %78
w: korn- knarr,|säng- halm,|korn- knarr,|säng- halm,|korn- knarr,|säng- halm,|
 E,2 E,2 z4 | E,2 E,2 z4 | E,2 E,2 z4 | E,2 E,2 z4 |!pp! E,2 E,2 z4 | E,2 E,2 z4 | .E,2 .E,2 z4 | %85
w: korn- knarr,|säng- halm,|korn- knarr,|säng- halm,|korn- knarr,|säng- halm,|korn- knarr,|
 .E,2 .E,2 z4 |!<(! !tenuto!E,4!<)!!>(! !tenuto!!fermata!E,2!>)! z2 | z8 |] %88
w: korn- knarr,|säng- halm.||

